lib/components/NewIcon/assets/Heart.svg

<svg viewBox="0 0 24 24" fill="none" xmlns="http://www.w3.org/2000/svg">
<path fill-rule="evenodd" clip-rule="evenodd" d="M11.9938 5.91615C10.1944 3.81913 7.19377 3.25504 4.93923 5.17528C2.68468 7.09552 2.36727 10.3061 4.13778 12.5771C5.60984 14.4654 10.0648 18.4478 11.5249 19.7368C11.6882 19.881 11.7699 19.9531 11.8652 19.9815C11.9483 20.0062 12.0393 20.0062 12.1225 19.9815C12.2178 19.9531 12.2994 19.881 12.4628 19.7368C13.9229 18.4478 18.3778 14.4654 19.8499 12.5771C21.6204 10.3061 21.3417 7.07532 19.0484 5.17528C16.7551 3.27524 13.7933 3.81913 11.9938 5.91615Z" stroke="currentColor" stroke-linecap="round" stroke-linejoin="round"/>
</svg>

<svg xmlns="http://www.w3.org/2000/svg" fill="none" viewBox="0 0 24 24"><path stroke="currentColor" stroke-linecap="round" stroke-linejoin="round" d="M11.994 5.916c-1.8-2.097-4.8-2.661-7.055-.74-2.254 1.92-2.572 5.13-.801 7.401 1.472 1.888 5.927 5.87 7.387 7.16.163.144.245.216.34.245a.46.46 0 0 0 .258 0c.095-.029.176-.101.34-.245 1.46-1.29 5.915-5.272 7.387-7.16 1.77-2.27 1.492-5.502-.802-7.402s-5.255-1.356-7.054.741" clip-rule="evenodd"/></svg>
